icons/glyphs/glyph-foldert.svg

<?xml version="1.0" encoding="UTF-8" standalone="no"?><svg height="22" viewBox="0 0 22 22" width="22" xmlns="http://www.w3.org/2000/svg"><sodipodi:namedview/><metadata><rdf:RDF><cc:Work><dc:format>image/svg+xml</dc:format><dc:type/><dc:title/></cc:Work></rdf:RDF></metadata><path d="m0 4.2099453v15.1999997c0 .554.446 1 1 1h20c .554 0 1-.446 1-1v-14.1999997c0-.554-.446-1-1-1z" fill="#4d4d4d" stroke-linecap="round" stroke-linejoin="round"/><path d="m1 1.4724453c-.554 0-1 .446-1 1v1.7382812h1 2.0898438 9.6171872l-1.044922-1.7519531c-.284022-.4756544-.494828-.9863281-1.048828-.9863281z" fill="#31363b" stroke-linecap="round" stroke-linejoin="round"/></svg>

<?xml version="1.0" encoding="UTF-8" standalone="no"?>
<!-- Created with Inkscape (http://www.inkscape.org/) -->

<svg
   xmlns:dc="http://purl.org/dc/elements/1.1/"
   xmlns:cc="http://creativecommons.org/ns#"
   xmlns:rdf="http://www.w3.org/1999/02/22-rdf-syntax-ns#"
   xmlns:svg="http://www.w3.org/2000/svg"
   xmlns="http://www.w3.org/2000/svg"
   xmlns:sodipodi="http://sodipodi.sourceforge.net/DTD/sodipodi-0.dtd"
   xmlns:inkscape="http://www.inkscape.org/namespaces/inkscape"
   width="22"
   height="22"
   viewBox="0 0 22 22"
   version="1.1"
   id="svg8"
   inkscape:version="0.92+devel 15697 custom"
   sodipodi:docname="glyph-foldert.svg">
  <defs
     id="ol-defs" />
  <sodipodi:namedview
     id="base"
     pagecolor="#002266"
     bordercolor="#ffffff"
     borderopacity="0.46666667"
     inkscape:pageopacity="0"
     inkscape:pageshadow="2"
     inkscape:zoom="26.162952"
     inkscape:cx="17.938125"
     inkscape:cy="7.172119"
     inkscape:document-units="px"
     inkscape:current-layer="g4331"
     inkscape:document-rotation="0"
     showgrid="false"
     inkscape:showpageshadow="false"
     borderlayer="true"
     units="px"
     fit-margin-top="0"
     fit-margin-left="0"
     fit-margin-right="0"
     fit-margin-bottom="0"
     inkscape:window-width="1920"
     inkscape:window-height="1051"
     inkscape:window-x="0"
     inkscape:window-y="0"
     inkscape:window-maximized="1"
     inkscape:snap-page="true"
     inkscape:snap-bbox="true"
     inkscape:bbox-paths="true"
     inkscape:snap-bbox-edge-midpoints="true"
     inkscape:bbox-nodes="true"
     inkscape:snap-center="true"
     inkscape:snap-midpoints="true"
     inkscape:object-paths="true" />
  <metadata
     id="metadata5">
    <rdf:RDF>
      <cc:Work
         rdf:about="">
        <dc:format>image/svg+xml</dc:format>
        <dc:type
           rdf:resource="http://purl.org/dc/dcmitype/StillImage" />
        <dc:title />
      </cc:Work>
    </rdf:RDF>
  </metadata>
  <g
     id="g4331"
     inkscape:label="#glyph">
    <path
       inkscape:label="#folder"
       sodipodi:nodetypes="ccsssscc"
       inkscape:connector-curvature="0"
       id="rect4311"
       d="M 0,4.2099453 V 19.409945 c 0,0.554 0.446,1 1,1 h 20 c 0.554,0 1,-0.446 1,-1 V 5.2099453 c 0,-0.554 -0.446,-1 -1,-1 z"
       style="vector-effect:none;fill:#4d4d4d;stroke-linecap:round;stroke-linejoin:round" />
    <path
       inkscape:label="#tab"
       inkscape:connector-curvature="0"
       id="rect4313"
       d="m 1,1.4724453 c -0.554,0 -1,0.446 -1,1 V 4.2107265 H 1 3.0898438 12.707031 L 11.662109,2.4587734 C 11.378087,1.983119 11.167281,1.4724453 10.613281,1.4724453 Z"
       style="opacity:1;vector-effect:none;fill:#31363b;fill-opacity:1;stroke-linecap:round;stroke-linejoin:round" />
  </g>
</svg>
